X:1
T:Title
%%score ( 1 2 ) { 3 | 4 }
L:1/8
Q:1/4=90
M:4/4
K:G
V:1 treble nm="Grand Piano, Soprano"
V:2 treble 
V:3 treble nm="Choir Pad, Come to Me"
V:4 bass 
V:1
 [DG][DA][GB][GB] [Gd][Ge] [Gd]2 | [GB][FA][EG][EG] [EG][EG] [DG]2 | %2
w: By~J.~Houston~Smith * * * * * *||
 [DG][FA] [GB]2 [GB][GB] [GB]2 | [DA]G [FA]6 | [DG][DA][GB][GB] [Gd][Ge] [Gd]2 | %5
w: |||
 [GB][FA][EG][EG] [EG][EG] [DG]2 | [DG][FA] [GB]2 [GB][GB] [Fd]2 | [GB][FA] [DG]6 | %8
w: |||
 [GB]>[Ac] [Bd]6 | [GB]>[FA] [GB]6 | G[FA] [GB]2 [GB][GB] [GB]2 | z2 A6 | [GB]>[Ac] [Bd]6 | %13
w: |||||
 [GB]>[FA] [GB]6 | [DG][FA] [GB]2 [GB][GB] [Fd]2 | [GB][FA]GD EE D2- | D6 z2 |] %17
w: ||||
V:2
 x8 | x8 | x8 | x8 | x8 | x8 | x8 | x8 | x8 | x8 | x8 | [DA]G F2 FF F2 | x8 | x8 | x8 | x8 | x8 |] %17
V:3
 B,CDD B,C B,2 | DC[K:bass]B,B, CC B,2 | DD D2 DD D2 | D^C D6 | B,CDD B,C B,2 | %5
 DC[K:bass]B,B, CC B,2 | DD D2 EE D2 | DC B,6 | z4 D>D D2 | z4 D>D D2 | DD D2 DD D2 | %11
 D^C D2 DD D2 | z4 D>D D2 | z4 D>D D2 | DD D2 EE D2 | DC[K:bass]B,B, CC B,2- | B,6 z2 |] %17
V:4
 G,G,G,G, G,G, G,2 | G,D,E,E, C,C, G,,2 | B,,D, G,2 G,G, G,2 | F,E, D,6 | G,G,G,G, G,G, G,2 | %5
 G,D,E,E, C,C, G,2 | B,A, G,2 E,E, B,,2 | D,D, G,,6 | z4 G,>G, G,2 | z4 G,>G, G,2 | %10
 B,A, G,2 G,G, G,2 | F,E, D,2 D,D, D,2 | z4 G,>G, G,2 | z4 G,>G, G,2 | B,A, G,2 E,E, B,,2 | %15
 D,D, G,,6- | G,,6 z2 |] %17

